icons/lungs-line.svg

<svg width="24" height="24" fill="none" xmlns="http://www.w3.org/2000/svg"><g clip-path="url(#a)"><path d="M22.001 17c-.001 4-.001 4-4 4-4 0-5-3-5-6 0-.378-.018-.918-.026-1.55l2.023 1.169L15 15c0 2.776.816 4 3 4 1.14 0 1.61-.007 1.963-.038.03-.351.037-.822.037-1.962 0-3.205-.703-6.033-1.835-7.9-.838-1.382-1.613-1.843-2.032-1.703-.293.098-.605.65-.831 1.623l-1.79-1.033c.369-1.197.982-2.151 1.988-2.487 3-1 6.503 4 6.5 11.5h.001ZM8.5 5.5c1.007.336 1.62 1.29 1.989 2.487L8.699 9.02c-.226-.973-.539-1.525-.831-1.623-.42-.14-1.195.32-2.032 1.702C4.703 10.967 4 13.795 4 17c0 1.14.007 1.61.038 1.962.351.031.822.038 1.962.038 2.184 0 3-1.224 3-4l.004-.382 2.023-1.168c-.01.633-.027 1.172-.027 1.55 0 3-1 6-5 6s-4 0-4-4C2 9.5 5.5 4.5 8.5 5.5ZM13 2v7.422l4.696 2.712-1 1.732L12 11.155l-4.696 2.711-1-1.732L11 9.422V2h2Z" /></g><defs><clipPath id="a"><path fill="#fff" d="M0 0h24v24H0z"/></clipPath></defs></svg>

<svg xmlns="http://www.w3.org/2000/svg" width="24" height="24" fill="none"><g clip-path="url(#a)"><g><path fill="#121212" d="M22.001 17C22 21 22 21 18.001 21C14.001 21 13.001 18 13.001 15C13.001 14.622 12.983 14.082 12.975 13.45L14.998 14.619L15 15C15 17.776 15.816 19 18 19C19.14 19 19.61 18.993 19.963 18.962C19.993 18.611 20 18.14 20 17C20 13.795 19.297 10.967 18.165 9.1C17.327 7.718 16.552 7.257 16.133 7.397C15.84 7.495 15.528 8.047 15.302 9.02L13.512 7.987C13.881 6.79 14.494 5.836 15.5 5.5C18.5 4.5 22.003 9.5 22 17H22.001ZM8.5 5.5C9.507 5.836 10.12 6.79 10.489 7.987L8.699 9.02C8.473 8.047 8.16 7.495 7.868 7.397C7.448 7.257 6.673 7.717 5.836 9.099C4.703 10.967 4 13.795 4 17C4 18.14 4.007 18.61 4.038 18.962C4.389 18.993 4.86 19 6 19C8.184 19 9 17.776 9 15L9.004 14.618L11.027 13.45C11.017 14.083 11 14.622 11 15C11 18 10 21 6 21C2 21 2 21 2 17C2 9.5 5.5 4.5 8.5 5.5ZM13 2V9.422L17.696 12.134L16.696 13.866L12 11.155L7.304 13.866L6.304 12.134L11 9.422V2H13Z"/></g></g><defs><clipPath id="a"><rect width="24" height="24" fill="white"/></clipPath></defs></svg>
